X:1603
T:E Doubling Scale
C: Kevin Fraser
B: https://bagpipes.ksfraser.com
O: Kevin Fraser
Z:Kevin Fraser
Q:1/4=78
K:HP
M:4/4
L:1/4
%%MIDI gracedivider 4
%%MIDI gchord
%%MIDI beatstring 
[| G {gef}e A {gef}e | B {gef}e c {gef}e | d {gef}e e {gef}e | f {gef}e g {aef}e | 
w: em hete en hete | o hete o hete   | a hete e hete | ve hete di hete |
w: |||- thumb gracenote ^|
   a {ef}e a {ef}e | g {aef}e f {gef}e | e {gef}e d {gef}e | c {gef}e B {gef}e | A {gef}e G {gef}e |]
w: I ete  I ete  |  di hete ve hete  | e hete a hete | o hete o hete | en hete em hete
w: ^ Half Doublings ^|
W:
W: Note the High A gracenote from High G for this doubling!
W: Note the Half Doubling from High A
W:
W: http://svenax.net/site/canntaireachd/5/ has a consolidated Doubling and Throws page
W: without diagrams so the canntaireachd here might be for a different movement...
W:
W:http://www.teachyourselfbagpipes.co.uk/cant.html concurs


